icons/svg/book-multiple-variant.svg

﻿<?xml version="1.0" encoding="utf-8"?>
<!DOCTYPE svg PUBLIC "-//W3C//DTD SVG 1.1//EN" "http://www.w3.org/Graphics/SVG/1.1/DTD/svg11.dtd">
<svg xmlns="http://www.w3.org/2000/svg" xmlns:xlink="http://www.w3.org/1999/xlink" version="1.1" baseProfile="full" width="24" height="24" viewBox="0 0 24.00 24.00" enable-background="new 0 0 24.00 24.00" xml:space="preserve">
	<path fill="#000000" fill-opacity="1" stroke-width="0.2" stroke-linejoin="round" d="M 18.9999,18.0007L 9.00002,17.9997C 7.8965,17.9997 7.00002,17.1037 7.00002,15.9997L 6.99999,4.00016C 6.99999,2.89616 7.89647,2.00016 8.99998,2.00016L 18.9999,2.00114C 20.1048,2.00114 20.9998,2.89713 20.9998,4.00114L 20.9999,16.0007C 20.9999,17.1047 20.1049,18.0007 18.9999,18.0007 Z M 9.99995,9.00066L 11.9999,7.50131L 13.9999,9.00091L 14,4L 10,4L 9.99995,9.00066 Z M 17,20L 17,22L 5,22C 3.89543,22 3,21.1046 3,20L 3,6.00001L 5,6L 5,20L 17,20 Z "/>
</svg>

<svg xmlns="http://www.w3.org/2000/svg" version="1.1" baseProfile="full" width="24" height="24" viewBox="0 0 24.00 24.00" xml:space="preserve"><path fill="#000" fill-opacity="1" stroke-width=".2" stroke-linejoin="round" d="M19 18H9c-1.104 0-2-.896-2-2V4c0-1.104.896-2 2-2h10c1.105 0 2 .897 2 2v12c0 1.105-.895 2-2 2zm-9-9l2-1.5L14 9V4h-4v5zm7 11v2H5c-1.105 0-2-.895-2-2V6h2v14h12z"/></svg>
